svg/thermometer_bluetooth.svg

<svg xmlns="http://www.w3.org/2000/svg" viewBox="0 0 24 24"><path d="M11 13V5c0-1.66-1.34-3-3-3S5 3.34 5 5v8c-2.21 1.66-2.66 4.79-1 7s4.79 2.66 7 1 2.66-4.79 1-7a4.7 4.7 0 0 0-1-1M8 4c.55 0 1 .45 1 1v3H7V5c0-.55.45-1 1-1m10 4v3.79L15.71 9.5l-.71.71L17.79 13 15 15.79l.71.71L18 14.21V18h.5l2.85-2.86L19.21 13l2.14-2.15L18.5 8zm1 1.91.94.94-.94.94zm0 4.3.94.93-.94.94z"/></svg>

<svg xmlns="http://www.w3.org/2000/svg" id="mdi-thermometer-bluetooth" viewBox="0 0 24 24"><path d="M11 13V5C11 3.34 9.66 2 8 2S5 3.34 5 5V13C2.79 14.66 2.34 17.79 4 20S8.79 22.66 11 21 13.66 16.21 12 14C11.72 13.62 11.38 13.28 11 13M8 4C8.55 4 9 4.45 9 5V8H7V5C7 4.45 7.45 4 8 4M18 8V11.79L15.71 9.5L15 10.21L17.79 13L15 15.79L15.71 16.5L18 14.21V18H18.5L21.35 15.14L19.21 13L21.35 10.85L18.5 8H18M19 9.91L19.94 10.85L19 11.79V9.91M19 14.21L19.94 15.14L19 16.08V14.21Z" /></svg>
